X: 07112
T: SURETTE'S HORNPIPE
C: Bob McQuillen 22 Feb 89
B: Bob's Note Book 7 #112
%R: hornpipe, reel
Z: 2019 John Chambers <jc:trillian.mit.edu>
M: C
L: 1/8
K: G	% and Em
GA \
| B2GB d2Bd | gbag e2de | gbge dBGA | B2A2 A2GA |\
| BAGB d2Bd | gbag e2de | gbge dBed | B2G2 G2 :|
|: B,D \
| E2B,E G2EG | BGBd e2ge | dBGB ABGE| D2B,2 B,2B,D |\
| E2B,D G2EG | BGBd e2ba | gedB AGFA | G2E2 E2 :|
%%begintext align
%% David Surette is a
%% great mandolin/guitar player from Portsmouth,
%% N.H. He plays with "Greengate" (Jane Orzechowski,
%% fiddle, and Sarah Bauhan, flute and whistle), and he also
%% duos with sweet singer Susie Burke. Dave's a great
%% musician. Hope you like this tune, Dave!
%%endtext

%%sep 1 1 500

%%sep 1 1 500

